X: 905
T: Jackson's Fancy.
B:O'Neill's 905
Z:Transcribed by Tom Keays (htkeays@mailbox.syr.edu)
Z:abc 1.6
M:6/8
R:Jig
L:1/8
K:D
DFA def | edc dAF | DFA dAF | FEE EFE |
DFA def | edc dAF | DFA deg | fdd d3 :|
|| fed (fa).f | (gb).g (fa).g | edc (fa).f | (ge).e eag |
fed (fa).f | (gb).g (fa).g | edc Aag | fdd d3 :|


